src/svg/buysellads.svg

<svg height="1000" width="875.0" xmlns="http://www.w3.org/2000/svg">
    <path d="m437.5 294.3l83.8 313.9h-167.6z m437.5-138v687.5c0 51.7-42 93.7-93.7 93.7h-687.5c-51.8 0-93.8-42-93.8-93.7v-687.5c0-51.8 42-93.8 93.8-93.8h687.5c51.7 0 93.7 42 93.7 93.8z m-127.5 635.3l-184.6-583.4h-250.8l-184.6 583.4h177.2l218.2-178.9 47.2 178.9h177.4z" />
  </svg>

<svg height="1000" width="875" xmlns="http://www.w3.org/2000/svg"><path d="M437.5 294.3l83.8 313.9H353.7l83.8 -313.9zM875 156.3v687.5c0 51.7 -42 93.7 -93.7 93.7H93.8C42 937.5 0 895.5 0 843.8V156.3C0 104.5 42 62.5 93.8 62.5h687.5c51.7 0 93.7 42 93.7 93.8zM747.5 791.6L562.9 208.2H312.1L127.5 791.6h177.2L522.9 612.7l47.2 178.9h177.4z"/></svg>
